Sources/FrostedUI/Resources/Icons.xcassets/happyFaceFilled16.imageset/happy-face-filled-16.svg

<svg width="16" height="16" viewBox="0 0 16 16" fill="none" xmlns="http://www.w3.org/2000/svg" data-fui-icon="true">
  <g clip-path="url(#clip0_6205_221)">
    <path
      d="M8 0C12.4183 0 16 3.58172 16 8C16 12.4183 12.4183 16 8 16C3.58172 16 0 12.4183 0 8C0 3.58172 3.58172 0 8 0ZM11.085 9.5791C10.7146 9.39416 10.2643 9.54469 10.0791 9.91504V9.91406L10.0693 9.93066C10.0551 9.95451 10.0297 9.99426 9.99316 10.0449C9.91949 10.1469 9.80246 10.2886 9.63672 10.4307C9.31319 10.7079 8.7939 11 8 11C7.2061 11 6.68681 10.7079 6.36328 10.4307C6.19754 10.2886 6.08051 10.1469 6.00684 10.0449C5.97025 9.99426 5.94486 9.95451 5.93066 9.93066L5.91992 9.91211V9.91504C5.73475 9.54469 5.28545 9.39416 4.91504 9.5791C4.54469 9.76428 4.39416 10.2146 4.5791 10.585L5.09961 10.3252C4.59275 10.5787 4.57928 10.5854 4.5791 10.5859L4.58301 10.5918C4.58435 10.5944 4.58517 10.5982 4.58691 10.6016C4.59036 10.6082 4.59552 10.6157 4.60059 10.625C4.61093 10.644 4.62426 10.6691 4.6416 10.6982C4.67623 10.7564 4.72511 10.8339 4.79004 10.9238C4.91947 11.103 5.11506 11.3365 5.38672 11.5693C5.9382 12.042 6.79403 12.5 8 12.5C9.20597 12.5 10.0618 12.042 10.6133 11.5693C10.8849 11.3365 11.0805 11.103 11.21 10.9238C11.2749 10.8339 11.3238 10.7564 11.3584 10.6982C11.3757 10.6691 11.3891 10.644 11.3994 10.625C11.4045 10.6157 11.4096 10.6082 11.4131 10.6016C11.4148 10.5982 11.4157 10.5944 11.417 10.5918C11.4176 10.5907 11.4185 10.5898 11.4189 10.5889L11.4199 10.5869C11.4201 10.5866 11.4208 10.5855 10.9004 10.3252L11.4209 10.585C11.6058 10.2146 11.4553 9.76428 11.085 9.5791ZM5 6C4.44772 6 4 6.44772 4 7C4 7.55228 4.44772 8 5 8C5.55228 8 6 7.55228 6 7C6 6.44772 5.55228 6 5 6ZM11 6C10.4477 6 10 6.44772 10 7C10 7.55228 10.4477 8 11 8C11.5523 8 12 7.55228 12 7C12 6.44772 11.5523 6 11 6Z"
      fill="currentColor"
    />
  </g>
  <defs>
    <clipPath id="clip0_6205_221"><path fill="currentColor" d="M0 0H16V16H0z" /></clipPath>
  </defs>
</svg>

<svg xmlns="http://www.w3.org/2000/svg" width="16" height="16" fill="none" data-fui-icon="true" viewBox="0 0 16 16"><g clip-path="url(#a)"><path fill="currentColor" d="M8 0a8 8 0 1 1 0 16A8 8 0 0 1 8 0m3.085 9.58a.75.75 0 0 0-1.006.335l-.01.016q-.021.037-.076.114c-.074.102-.19.244-.356.386C9.313 10.708 8.794 11 8 11s-1.313-.292-1.637-.57a2.2 2.2 0 0 1-.432-.5l-.011-.018v.003a.749.749 0 1 0-1.34.67l.52-.26-.52.26.003.007.004.01.014.023.04.073c.035.058.084.136.149.226.13.179.325.412.597.645.551.473 1.407.931 2.613.931s2.062-.458 2.613-.93c.272-.234.468-.467.597-.646.065-.09.114-.168.148-.226q.026-.044.041-.073l.014-.023.004-.01.002-.003v-.002c.001 0 .002-.002-.519-.262l.52.26a.75.75 0 0 0-.335-1.006M5 6a1 1 0 1 0 0 2 1 1 0 0 0 0-2m6 0a1 1 0 1 0 0 2 1 1 0 0 0 0-2"/></g><defs><clipPath id="a"><path fill="currentColor" d="M0 0h16v16H0z"/></clipPath></defs></svg>
